Newaita-dark/actions/16/go-down.svg

<?xml version="1.0" encoding="UTF-8"?>
<svg xmlns="http://www.w3.org/2000/svg" xmlns:xlink="http://www.w3.org/1999/xlink" width="16pt" height="16pt" viewBox="0 0 16 16" version="1.1">
<g id="surface1">
<path style=" stroke:none;fill-rule:nonzero;fill:rgb(74.117649%,74.117649%,74.117649%);fill-opacity:1;" d="M 15.214844 8.0625 C 15.214844 4.03125 11.96875 0.785156 7.9375 0.785156 C 3.90625 0.785156 0.660156 4.03125 0.660156 8.0625 C 0.660156 12.09375 3.90625 15.339844 7.9375 15.339844 C 11.96875 15.339844 15.214844 12.09375 15.214844 8.0625 Z M 14.222656 8.0625 C 14.222656 11.542969 11.417969 14.347656 7.9375 14.347656 C 4.457031 14.347656 1.652344 11.542969 1.652344 8.0625 C 1.652344 4.582031 4.457031 1.777344 7.9375 1.777344 C 11.417969 1.777344 14.222656 4.582031 14.222656 8.0625 Z M 14.222656 8.0625 "/>
<path style=" stroke:none;fill-rule:nonzero;fill:rgb(14.901961%,65.098041%,60.392159%);fill-opacity:1;" d="M 11.511719 6.542969 C 11.511719 6.417969 11.464844 6.289062 11.367188 6.191406 C 11.171875 5.996094 10.859375 5.996094 10.664062 6.191406 L 7.976562 8.882812 L 5.285156 6.191406 C 5.089844 5.996094 4.777344 5.996094 4.582031 6.191406 C 4.390625 6.386719 4.390625 6.699219 4.582031 6.894531 L 7.625 9.933594 C 7.628906 9.941406 7.636719 9.945312 7.644531 9.953125 C 7.648438 9.957031 7.65625 9.964844 7.660156 9.96875 C 7.667969 9.972656 7.675781 9.980469 7.683594 9.984375 C 7.6875 9.988281 7.695312 9.992188 7.703125 10 C 7.707031 10.003906 7.714844 10.007812 7.722656 10.011719 C 7.730469 10.015625 7.738281 10.019531 7.746094 10.023438 C 7.75 10.027344 7.757812 10.03125 7.765625 10.035156 C 7.773438 10.039062 7.78125 10.039062 7.789062 10.042969 C 7.796875 10.046875 7.804688 10.050781 7.8125 10.050781 C 7.820312 10.054688 7.824219 10.058594 7.832031 10.058594 C 7.839844 10.0625 7.847656 10.0625 7.855469 10.066406 C 7.863281 10.066406 7.871094 10.070312 7.878906 10.070312 C 7.886719 10.074219 7.894531 10.074219 7.902344 10.074219 C 7.910156 10.074219 7.917969 10.078125 7.925781 10.078125 C 7.933594 10.078125 7.941406 10.078125 7.949219 10.078125 C 7.960938 10.078125 7.96875 10.082031 7.976562 10.082031 C 7.984375 10.082031 7.992188 10.078125 8 10.078125 C 8.007812 10.078125 8.015625 10.078125 8.023438 10.078125 C 8.03125 10.078125 8.039062 10.074219 8.046875 10.074219 C 8.054688 10.074219 8.0625 10.074219 8.070312 10.070312 C 8.078125 10.070312 8.085938 10.066406 8.09375 10.066406 C 8.101562 10.0625 8.109375 10.0625 8.117188 10.058594 C 8.125 10.058594 8.132812 10.054688 8.140625 10.050781 C 8.144531 10.050781 8.152344 10.046875 8.160156 10.042969 C 8.167969 10.039062 8.175781 10.039062 8.183594 10.035156 C 8.191406 10.03125 8.199219 10.027344 8.207031 10.023438 C 8.210938 10.019531 8.21875 10.015625 8.226562 10.011719 C 8.234375 10.007812 8.242188 10.003906 8.246094 10 C 8.253906 9.992188 8.261719 9.988281 8.269531 9.984375 C 8.273438 9.980469 8.28125 9.972656 8.289062 9.96875 C 8.292969 9.964844 8.300781 9.957031 8.308594 9.953125 C 8.3125 9.945312 8.320312 9.941406 8.324219 9.933594 L 11.367188 6.894531 C 11.464844 6.796875 11.511719 6.667969 11.511719 6.542969 Z M 11.511719 6.542969 "/>
</g>
</svg>

<svg xmlns="http://www.w3.org/2000/svg" width="16pt" height="16pt" viewBox="0 0 16 16"><path d="M15.215 8.063A7.262 7.262 0 0 0 7.938.785 7.262 7.262 0 0 0 .66 8.062a7.262 7.262 0 0 0 7.277 7.278 7.262 7.262 0 0 0 7.278-7.277zm-.992 0a6.273 6.273 0 0 1-6.286 6.285 6.273 6.273 0 0 1-6.285-6.286 6.273 6.273 0 0 1 6.285-6.285 6.273 6.273 0 0 1 6.286 6.285zm0 0" fill="#bdbdbd"/><path d="M11.512 6.543a.497.497 0 0 0-.848-.352L7.977 8.883 5.285 6.19a.495.495 0 0 0-.703 0 .502.502 0 0 0 0 .704l3.043 3.039c.004.007.012.011.02.02l.015.015.024.015c.003.004.011.008.02.016a255.909 255.909 0 0 1 .063.035c.006.004.014.004.022.008a.056.056 0 0 0 .024.008c.007.004.011.008.019.008.008.004.016.004.023.007.008 0 .016.004.024.004a.05.05 0 0 0 .023.004c.008 0 .016.004.024.004h.023c.012 0 .02.004.028.004.007 0 .015-.004.023-.004h.023c.008 0 .016-.004.024-.004s.015 0 .023-.004c.008 0 .016-.004.024-.004.008-.004.015-.004.023-.007a.056.056 0 0 0 .024-.008.066.066 0 0 0 .02-.008c.007-.004.015-.004.023-.008l.023-.012.02-.011.02-.012a.082.082 0 0 1 .023-.016c.003-.004.011-.011.02-.015.003-.004.01-.012.019-.016.004-.008.011-.012.015-.02l3.043-3.038a.497.497 0 0 0 .145-.352zm0 0" fill="#26a69a"/></svg>
